X:295
T:The Sligo maid
O:Ireland
R:Reel
B:Irish Traditional Music Session Tunes 2 n8
B:Ceol Rince 1 n124
B:Fiddler's Fakebook
S:pubsco~4.abc, walshs~2.abc, Norbeck
S:My arrangement from various sources
Z:Transcription, arrangement, chords:Mike Long
M:C|
L:1/8
K:D
"Am"A2BA (3(Bcd) ef|"C"gedB AGEF|"G"G2BG dGBG|"Em"DEGA BGdB|\
"Am"A2BA (3(Bcd) ef|
"C"gedB AGEG|"G"~B3G ABGE|"Em"DEGA BAA2:|\
|:"Am"eaag a2ga|"G"bgab gfed|
"Em"eg~g2 g2ge|"G"dega bgab|\
"Am"eaag a2ga|"G"bgab gfed|"Em"eg~g2 edBc|"G"dBgB "(Am)"BAA2:|
